X: 20721
Q: "Allegro."
M: 6/8
L: 1/8
K: G
z |\
b3 g3 | aaa a2z | a3 f3 | ggg g2z |
b3 g3 | aaa a2z | a3 f3 | ggg "^D.C."g2 |]\
z |\
d3 cBc | d3 cBc | d2d g2b | bag fed |\
c3 BAB | c3 BAB | ced cBA | G2B "^D.C."G2 |]


